X: 28130
T: Mrs Crehan's
R: reel
M: 4/4
K: Gmajor
|:G2dG eGdB|GBdB ABdB|(3GAG dG eGdG|1 EGAB cedB:|2 EGAB cage||
dGBd G2ge|dcBd cAAe|dGBd G2Bd|cedc BGge|
dGBA Gage|dGBG AGEF|GABc dege|dBAc BGBc|
d2Bd gdBc|dcBd cABd|(3gag fa gdBd|cedc BGge|
dGBA Gage|dGBG AGEF|GABc dege|dBAc (3BcB AB||

